!!!OTL: ファッションモンスター
**kern	**kern	**kern	**kern	**kern
*part5	*part4	*part3	*part2	*part1
*staff5	*staff4	*staff3	*staff2	*staff1
*I"ピアノ	*I"ピアノ	*I"ピアノ	*I"ピアノ	*I"ピアノ
*I'Pno.	*I'Pno.	*I'Pno.	*I'Pno.	*I'Pno.
*clefF4	*clefF4	*clefG2	*clefG2	*clefG2
*k[b-]	*k[b-]	*k[b-]	*k[b-]	*k[b-]
*M4/4	*M4/4	*M4/4	*M4/4	*M4/4
*MM160	*MM160	*MM160	*MM160	*MM160
=1	=1	=1	=1	=1
16E-XKL	1r	1r	1r	1r
8F	.	.	.	.
16FJk	.	.	.	.
8FL	.	.	.	.
16E-L	.	.	.	.
16FJJ	.	.	.	.
16r	.	.	.	.
16FKL	.	.	.	.
8FJ	.	.	.	.
8FL	.	.	.	.
8CJ	.	.	.	.
=2	=2	=2	=2	=2
4FF	1r	1r	1r	2r
4r	.	.	.	.
2r	.	.	.	4f
.	.	.	.	4f
=3	=3	=3	=3	=3
[1FF	8FL	[1c	[1f	4.cc
.	8G	.	.	.
.	8F	.	.	.
.	8GJ	.	.	[8a
.	8FL	.	.	2a_
.	8G	.	.	.
.	8F	.	.	.
.	8GJ	.	.	.
=4	=4	=4	=4	=4
1FF]	8FL	1c_	1f_	1a_
.	8G	.	.	.
.	8F	.	.	.
.	8GJ	.	.	.
.	8FL	.	.	.
.	8G	.	.	.
.	8F	.	.	.
.	8GJ	.	.	.
=5	=5	=5	=5	=5
2.FF	8FL	1c_	1f_	4a]
.	8G	.	.	.
.	8F	.	.	4r
.	8GJ	.	.	.
.	8FL	.	.	2r
.	8G	.	.	.
4C	8F	.	.	.
.	8GJ	.	.	.
=6	=6	=6	=6	=6
8r	8FL	1c]	1f]	2r
8C	8G	.	.	.
8r	8F	.	.	.
[8C	8GJ	.	.	.
4C]	8FL	.	.	4f
.	8G	.	.	.
8DL	8F	.	.	4f
8CJ	8GJ	.	.	.
=7	=7	=7	=7	=7
[1FF	8FL	[1c	[1f	4.cc
.	8G	.	.	.
.	8F	.	.	.
.	8GJ	.	.	[8a
.	8FL	.	.	2a_
.	8G	.	.	.
.	8F	.	.	.
.	8GJ	.	.	.
=8	=8	=8	=8	=8
1FF]	8FL	1c_	1f_	1a_
.	8G	.	.	.
.	8F	.	.	.
.	8GJ	.	.	.
.	8FL	.	.	.
.	8G	.	.	.
.	8F	.	.	.
.	8GJ	.	.	.
=9	=9	=9	=9	=9
2.FF	8FL	1c_	1f_	4a]
.	8G	.	.	.
.	8F	.	.	4r
.	8GJ	.	.	.
.	8FL	.	.	2r
.	8G	.	.	.
4C	8F	.	.	.
.	8GJ	.	.	.
=10	=10	=10	=10	=10
8r	8FL	1c]	1f]	2r
8C	8G	.	.	.
8r	8F	.	.	.
[8C	8GJ	.	.	.
4C]	8FL	.	.	4f
.	8G	.	.	.
8DL	8F	.	.	4f
8CJ	8GJ	.	.	.
=11	=11	=11	=11	=11
8FFL	8FL	4.f	4.a	4.cc
8FF	8G	.	.	.
8FF	8F	.	.	.
8FFJ	8GJ	8f	8a	[8a
8FFL	8FL	4r	4r	2a_
8FF	8G	.	.	.
8FF	8F	8fL	8aL	.
8FFJ	8GJ	8fJ	8aJ	.
=12	=12	=12	=12	=12
8FFL	8FL	8r	8r	1a_
8FF	8G	8f	8a	.
8FF	8F	8r	8r	.
8FFJ	8GJ	[8f	[8a	.
8FFL	8FL	2f]	2a]	.
8FF	8G	.	.	.
8FF	8F	.	.	.
8FFJ	8GJ	.	.	.
=13	=13	=13	=13	=13
8FFL	8FL	[2f	[2a	4a]
8F	8G	.	.	.
8F	8F	.	.	4r
8FFJ	8GJ	.	.	.
8FL	8FL	8fL]	8aL]	2r
8F	8G	8f	8a	.
8FF	8F	8f	8a	.
8FJ	8GJ	8fJ	8aJ	.
=14	=14	=14	=14	=14
8FL	8FL	8fL	8aL	2r
8FF	8G	8f	8a	.
8F	8F	8f	8a	.
8FJ	8GJ	8fJ	8aJ	.
8FFL	8FL	8fL	8aL	4f
8F	8G	8f	8a	.
8F	8F	8f	8a	4f
8FFJ	8GJ	8fJ	8aJ	.
=15	=15	=15	=15	=15
8FFL	8FL	4.f	4.a	4.cc
8FF	8G	.	.	.
8FF	8F	.	.	.
8FFJ	8GJ	8f	8a	[8a
8FFL	8FL	4r	4r	2a_
8FF	8G	.	.	.
8FF	8F	8fL	8aL	.
8FFJ	8GJ	8fJ	8aJ	.
=16	=16	=16	=16	=16
8FFL	8FL	8r	8r	1a_
8FF	8G	8f	8a	.
8FF	8F	8r	8r	.
8FFJ	8GJ	[8f	[8a	.
8FFL	8FL	2f]	2a]	.
8FF	8G	.	.	.
8FF	8F	.	.	.
8FFJ	8GJ	.	.	.
=17	=17	=17	=17	=17
8FFL	8FL	[2f	[2a	4a]
8F	8G	.	.	.
8F	8F	.	.	4r
8FFJ	8GJ	.	.	.
8FL	8FL	8fL]	8aL]	2r
8F	8G	8f	8a	.
8FF	8F	8f	8a	.
8FJ	8GJ	8fJ	8aJ	.
=18	=18	=18	=18	=18
8FL	8FL	8fL	8aL	1r
8FF	8G	8f	8a	.
8F	8F	8f	8a	.
8FJ	8GJ	8fJ	8aJ	.
8FFL	8FL	8fL	8aL	.
8F	8G	8f	8a	.
8F	8F	8f	8a	.
8FFJ	8GJ	8fJ	8aJ	.
=19	=19	=19	=19	=19
*k[b-e-a-d-]	*k[b-e-a-d-]	*k[b-e-a-d-]	*k[b-e-a-d-]	*k[b-e-a-d-]
8D-L	8.A-L	4.d-	4.f	1r
8D-J	.	.	.	.
.	16A-Jk	.	.	.
8D-L	8r	.	.	.
16AA-L	8A-	[8e-	[8g	.
16BB-JJ	.	.	.	.
8D-	8r	4e-]	4g]	.
4D-	8A-	.	.	.
.	16r	[4f	[4a-	.
.	8.A-	.	.	.
[8D-	.	.	.	.
=20	=20	=20	=20	=20
8D-]	8.A-L	2.f]	2.a-]	1r
4D-	.	.	.	.
.	16A-Jk	.	.	.
.	8r	.	.	.
[8D-	8A-	.	.	.
8D-]	8r	.	.	.
4D-	8A-	.	.	.
.	16r	8r	8r	.
.	8.A-	.	.	.
8D-	.	16e-LL	16gLL	.
.	.	16d-JJ	16fJJ	.
=21	=21	=21	=21	=21
8CL	8.A-L	4.c	4.e-	1r
8CJ	.	.	.	.
.	16A-Jk	.	.	.
8CL	8r	.	.	.
16AA-L	8A-	[8e-	[8g	.
16BB-JJ	.	.	.	.
8C	8r	4e-]	4g]	.
4C	8A-	.	.	.
.	16r	[4e-	[4a-	.
.	8.A-	.	.	.
[8C	.	.	.	.
=22	=22	=22	=22	=22
8C]	8.A-L	2.e-]	2.a-]	1r
4C	.	.	.	.
.	16A-Jk	.	.	.
.	8r	.	.	.
[8C	8A-	.	.	.
8C]	8r	.	.	.
4C	8A-	.	.	.
.	16r	4r	4r	.
.	8.A-	.	.	.
8C	.	.	.	.
=23	=23	=23	=23	=23
8BB-L	8.A-L	4.d-	4.f	1r
8BB-J	.	.	.	.
.	16A-Jk	.	.	.
8BB-L	8r	.	.	.
16FFL	8A-	[8e-	[8g	.
16AA-JJ	.	.	.	.
8BB-	8r	4e-]	4g]	.
4BB-	8A-	.	.	.
.	16r	[4f	[4a-	.
.	8.A-	.	.	.
[8BB-	.	.	.	.
=24	=24	=24	=24	=24
8BB-]	8.A-L	2.f]	2.a-]	1r
4BB-	.	.	.	.
.	16A-Jk	.	.	.
.	8r	.	.	.
[8BB-	8A-	.	.	.
8BB-]	8r	.	.	.
4BB-	8A-	.	.	.
.	16r	4r	4r	.
.	8.A-	.	.	.
8BB-	.	.	.	.
=25	=25	=25	=25	=25
4AA-	4c	4e-	4a-	1r
4r	4r	4r	4r	.
2r	2r	2r	2r	.
=26	=26	=26	=26	=26
16GKL	1r	1r	1r	1r
8A-	.	.	.	.
16A-Jk	.	.	.	.
8A-L	.	.	.	.
16GL	.	.	.	.
16A-JJ	.	.	.	.
16r	.	.	.	.
16A-KL	.	.	.	.
8A-J	.	.	.	.
8A-L	.	.	.	.
8E-J	.	.	.	.
=27	=27	=27	=27	=27
*k[b-e-a-]	*k[b-e-a-]	*k[b-e-a-]	*k[b-e-a-]	*k[b-e-a-]
4F	2B-	8r	8r	8r
.	.	8e-L	8g	8cL
4FF	.	8f	8r	8f
.	.	8b-J	8g	8gJ
8FFL	8r	8f	8r	8b-L
8F	8c	4.e-	8g	8gJ
8FF	8r	.	8r	8r
8FJ	8c	.	8g	8g
=28	=28	=28	=28	=28
4r	2B-	8r	8r	8r
.	.	8e-L	8g	8e-L
4FF	.	8f	8r	8f
.	.	8b-J	8g	8gJ
8FFL	8r	8f	8r	8b-L
8F	8c	4.e-	8g	8gJ
8FF	8r	.	8r	8r
8FJ	8c	.	8g	8g
=29	=29	=29	=29	=29
4r	2B-	8r	8r	8r
.	.	8e-L	8g	8e-L
4FF	.	8f	8r	8f
.	.	8b-J	8g	8gJ
8FFL	8r	8f	8r	8b-L
8F	8c	4.e-	8g	8g
8FF	8r	.	8r	8g
8FJ	8c	.	8g	8gJ
=30	=30	=30	=30	=30
4r	2B-	8r	8r	8r
.	.	8e-L	8g	8e-L
4FF	.	8f	8r	8f
.	.	8b-J	8g	8gJ
8FFL	8r	8f	8r	8b-L
8F	8c	4.e-	8g	8g
8FF	8r	.	8r	8b-
8FJ	8c	.	8g	8gJ
=31	=31	=31	=31	=31
4r	2B-	8r	8r	8r
.	.	8e-L	8g	8e-L
4FF	.	8f	8r	8f
.	.	8b-J	8g	8gJ
8FFL	8r	8f	8r	8b-L
8F	8c	4.e-	8g	8gJ
8FF	8r	.	8r	8r
8FJ	8c	.	8g	8g
=32	=32	=32	=32	=32
4r	2B-	8r	8r	8r
.	.	8e-L	8g	8e-L
4FF	.	8f	8r	8f
.	.	8b-J	8g	8gJ
8FFL	8r	8f	8r	8b-L
8F	8c	4.e-	8g	8g
8FF	8r	.	8r	8g
8FJ	8c	.	8g	8gJ
=33	=33	=33	=33	=33
4r	2B-	8r	8r	8r
.	.	8e-L	8g	8e-L
4FF	.	8f	8r	8f
.	.	8b-J	8g	8gJ
8FFL	8r	8f	8r	8b-L
8F	8c	4.e-	8g	8gJ
8FF	8r	.	8r	8r
8FJ	8c	.	8g	8g
=34	=34	=34	=34	=34
4r	2B-	8r	8r	8r
.	.	8e-L	8g	8e-L
4FF	.	8f	8r	8f
.	.	8b-J	8g	8gJ
8FFL	8r	8f	8r	8b-L
8F	8c	4.e-	8g	8cc
8FF	8r	.	8r	8b-
8FJ	8c	.	8g	8ccJ
=35	=35	=35	=35	=35
4r	2B-	8r	2r	2r
.	.	8e-L	.	.
4FF	.	8f	.	.
.	.	8b-J	.	.
8FFL	8r	8f	8b-L	8e-L
8F	8c	4.e-	8cc	8f
8FF	8r	.	8cc	8f
8FJ	8c	.	8ccJ	8fJ
=36	=36	=36	=36	=36
4r	2B-	8r	2r	2r
.	.	8e-L	.	.
4FF	.	8f	.	.
.	.	8b-J	.	.
8FFL	8r	8f	8b-L	8e-L
8F	8c	4.e-	8cc	8f
8FF	8r	.	8cc	8f
8FJ	8c	.	8ccJ	8fJ
=37	=37	=37	=37	=37
4r	2B-	8r	2r	2r
.	.	8e-L	.	.
4FF	.	8f	.	.
.	.	8b-J	.	.
8FFL	8r	8f	8b-L	8e-L
8F	8c	4.e-	8cc	8f
8FF	8r	.	8cc	8f
8FJ	8c	.	8ccJ	8fJ
=38	=38	=38	=38	=38
4r	2B-	8r	8r	8r
.	.	8e-L	8ccL	8a-L
4FF	.	8f	8b-	8g
.	.	8b-J	8a-J	8fJ
8FFL	8r	8f	8b-L	8gL
8F	8c	4.e-	8a-	8e-
8FF	8r	.	8g	8c
8FJ	8c	.	8e-J	8cJ
=39	=39	=39	=39	=39
4r	2B-	8r	2r	2r
.	.	8e-L	.	.
4FF	.	8f	.	.
.	.	8b-J	.	.
8FFL	8r	8f	8b-L	8e-L
8F	8c	4.e-	8cc	8f
8FF	8r	.	8cc	8f
8FJ	8c	.	8ccJ	8fJ
=40	=40	=40	=40	=40
4r	2B-	8r	2r	2r
.	.	8e-L	.	.
4FF	.	8f	.	.
.	.	8b-J	.	.
8FFL	8r	8f	8b-L	8e-L
8F	8c	4.e-	8cc	8f
8FF	8r	.	8cc	8f
8FJ	8c	.	8ccJ	8fJ
=41	=41	=41	=41	=41
1r	1r	1r	8r	8r
.	.	.	8a-L	8a-L
.	.	.	8g	8g
.	.	.	8fJ	8fJ
.	.	.	8gL	8gL
.	.	.	8e-	8e-
.	.	.	8c	8c
.	.	.	[8fJ	[8fJ
=42	=42	=42	=42	=42
16E-KL	1r	1r	4f]	4f]
8F	.	.	.	.
16FJk	.	.	.	.
8FL	.	.	4r	4r
16E-L	.	.	.	.
16FJJ	.	.	.	.
16r	.	.	2r	4f
16FKL	.	.	.	.
8FJ	.	.	.	.
8FL	.	.	.	4f
8CJ	.	.	.	.
=43	=43	=43	=43	=43
*k[b-e-a-d-]	*k[b-e-a-d-]	*k[b-e-a-d-]	*k[b-e-a-d-]	*k[b-e-a-d-]
8D-L	8D-	4.d-	4.f	4.ee-
8D-J	4A-	.	.	.
8D-L	.	.	.	.
16AA-L	[8A-	[8e-	[8g	[8cc
16BB-JJ	.	.	.	.
8D-	8A-]	4e-]	4g]	2cc_
4D-	4A-	.	.	.
.	.	[4f	[4a-	.
[8D-	[8A-	.	.	.
=44	=44	=44	=44	=44
8D-]	8A-]	2.f]	2.a-]	4cc]
4D-	4A-	.	.	.
.	.	.	.	4r
[8D-	[8A-	.	.	.
8D-]	8A-]	.	.	4f
4D-	4A-	.	.	.
.	.	8r	8r	4f
8D-	8A-	16e-LL	16gLL	.
.	.	16d-JJ	16fJJ	.
=45	=45	=45	=45	=45
8CL	8C	4.c	4.e-	4.ee-
8CJ	4A-	.	.	.
8CL	.	.	.	.
16AA-L	[8A-	[8e-	[8g	[8cc
16BB-JJ	.	.	.	.
8C	8A-]	4e-]	4g]	2cc_
4C	4A-	.	.	.
.	.	[4e-	[4a-	.
[8C	[8A-	.	.	.
=46	=46	=46	=46	=46
8C]	8A-]	2.e-]	2a-]	4cc]
4C	4A-	.	.	.
.	.	.	.	4r
[8C	[8A-	.	.	.
8C]	8A-]	.	8r	8r
4C	4A-	.	8a-L	8fL
.	.	4r	8cc	8a-
8C	8A-	.	8a-J	8fJ
=47	=47	=47	=47	=47
8BB-L	8r	4.d-	8ccL	8a-L
8BB-	8A-L	.	8a-	8f
8BB-	8c	.	8cc	8a-
8BB-J	8A-J	[8d-	8a-J	8fJ
8BB-L	8d-L	4d-]	8ccL	8a-L
8BB-	8A-	.	8dd-	8b-
8BB-	8c	4e-	8ee-	8cc
8BB-J	8A-J	.	[8dd-J	[8b-J
=48	=48	=48	=48	=48
8BB-L	8B-L	4d-	8dd-L]	8b-L]
8BB-	8A-	.	8ee-J	8ccJ
8BB-	8c	4e-	4r	4r
8BB-J	8A-J	.	.	.
8BB-L	8d-L	4f	8r	8r
8BB-	8A-	.	4.ee-	8ccL
8BB-	8c	4g	.	8dd-
8BB-J	8A-J	.	.	8ccJ
=49	=49	=49	=49	=49
8FFL	4.B-	4.f	1cc	8b-L
8FF	.	.	.	8a-
8FF	.	.	.	8a-
8FFJ	[8c	[8f	.	8fJ
8FFL	4c]	4f]	.	8a-L
8FF	.	.	.	8b-
8FF	4e-	4f	.	8cc
8FFJ	.	.	.	[8b-J
=50	=50	=50	=50	=50
8FFL	8r	8r	8r	8b-L]
8FF	4.d-	4.f	4.a-	8a-J
8FF	.	.	.	4r
8FFJ	.	.	.	.
8FFL	4c	4f	4a-	4f
8GG	.	.	.	.
8AA-	4c	4f	4a-	4f
8CJ	.	.	.	.
=51	=51	=51	=51	=51
8D-L	4.B-	4.a-	4.b-	4.ee-
8D-J	.	.	.	.
8D-L	.	.	.	.
16AA-L	[8F	[8f	[8a-	[8cc
16BB-JJ	.	.	.	.
8D-	2F_	2f_	2a-_	2cc_
4D-	.	.	.	.
[8D-	.	.	.	.
=52	=52	=52	=52	=52
8D-]	4F]	4f]	4a-]	4cc]
4D-	.	.	.	.
.	4r	4r	4r	4r
[8D-	.	.	.	.
8D-]	4F	4f	4a-	4f
4D-	.	.	.	.
.	4F	4f	4a-	4f
8D-	.	.	.	.
=53	=53	=53	=53	=53
8CL	4.E-	2r	4r	4.ee-
8CJ	.	.	.	.
8CL	.	.	4.b-	.
16AA-L	[8C	.	.	[8cc
16BB-JJ	.	.	.	.
8C	4C]	4.a-	.	2cc_
4C	.	.	[8a-	.
.	[4E-	.	4a-_	.
[8C	.	[8e-	.	.
=54	=54	=54	=54	=54
8C]	8E-L]	1e-]	1a-]	4cc]
4C	[8CJ	.	.	.
.	2.C]	.	.	4r
[8C	.	.	.	.
8C]	.	.	.	4f
4C	.	.	.	.
.	.	.	.	4f
8C	.	.	.	.
=55	=55	=55	=55	=55
8BB-L	4.A-	4.a-	4.b-	4.ee-
8BB-J	.	.	.	.
8BB-L	.	.	.	.
16FFL	[8F	[8f	[8a-	[8cc
16AA-JJ	.	.	.	.
8BB-	2F_	2f_	2a-_	2cc_
4BB-	.	.	.	.
[8BB-	.	.	.	.
=56	=56	=56	=56	=56
8BB-]	4F]	4f]	4a-]	8cc]
4E-	.	.	.	8r
.	4r	4r	4r	4r
[8E-	.	.	.	.
8E-]	4F	4f	4a-	4a-
4E-	.	.	.	.
.	4F	4f	4a-	4a-
8E-	.	.	.	.
=57	=57	=57	=57	=57
8AA-L	4.C	4.a-	4.b-	4.ee-
8AA-J	.	.	.	.
4r	.	.	.	.
.	[8C	[8e-	[8a-	[8cc
8AA-L	2C]	2e-]	2a-]	2cc_
8AA-J	.	.	.	.
4r	.	.	.	.
=58	=58	=58	=58	=58
2AA-	2C	2c	2e-	2cc]
2r	2r	2r	2r	2r
=59||	=59||	=59||	=59||	=59||
*k[b-]	*k[b-]	*k[b-]	*k[b-]	*k[b-]
8FFL	[1F	8cL	8fL	4r
8FF	.	8c	8f	.
8FF	.	8c	8f	8aL
8FFJ	.	8cJ	8fJ	8aJ
8FFL	.	8cL	8fL	8a
8FF	.	8c	8f	4a
8FF	.	8c	8f	.
8FFJ	.	8cJ	8fJ	[8a
=60	=60	=60	=60	=60
8FFL	1F]	8cL	8fL	8aL]
8FF	.	8c	8f	8a
8FF	.	8c	8f	8a
8FFJ	.	8cJ	8fJ	8aJ
8FFL	.	8cL	8fL	8aL
8F	.	8c	8f	8a
8FF	.	8c	8f	8a
8FJ	.	8cJ	8fJ	8aJ
=61	=61	=61	=61	=61
8C#XL	[1A-X	8e-XL	8fL	4b-
8C#	.	8e-	8f	.
8C#	.	8c#X	8f	8fL
8C#J	.	8c#J	8fJ	[8fJ
8C#L	.	8c#L	8fL	8fL]
8C#	.	8c#	8f	8gJ
8C#	.	8e-	8f	[4a-X
8C#J	.	8e-J	8fJ	.
=62	=62	=62	=62	=62
8E-XL	1A-]	8e-XL	8fL	1a-]
8E-	.	8e-	8f	.
8E-	.	8e-	8f	.
8E-J	.	8e-J	8fJ	.
8E-L	.	8e-L	8fL	.
8C#X	.	8e-	8f	.
8BB-	.	8e-	8f	.
8AA-XJ	.	8e-J	8fJ	.
=63	=63	=63	=63	=63
8FFL	[1F	8cL	8fL	4r
8FF	.	8c	8f	.
8FF	.	8c	8f	8aL
8FFJ	.	8cJ	8fJ	8aJ
8FFL	.	8cL	8fL	8a
8FF	.	8c	8f	4a
8FF	.	8c	8f	.
8FFJ	.	8cJ	8fJ	[8a
=64	=64	=64	=64	=64
8FFL	1F]	8cL	8fL	8aL]
8FF	.	8c	8f	8a
8FF	.	8c	8f	8a
8FFJ	.	8cJ	8fJ	8aJ
8FFL	.	8cL	8fL	8a
8F	.	8c	8f	4a
8FF	.	8c	8f	.
8FJ	.	8cJ	8fJ	8a
=65	=65	=65	=65	=65
8C#XL	[1A-X	8e-XL	8fL	4b-
8C#	.	8e-	8f	.
8C#	.	8c#X	8f	8fL
8C#J	.	8c#J	8fJ	[8fJ
8C#L	.	8c#L	8fL	8fL]
8C#	.	8c#	8f	8gJ
8C#	.	8e-	8f	[4a-X
8C#J	.	8e-J	8fJ	.
=66	=66	=66	=66	=66
8E-XL	2A-]	8e-XL	8fL	4a-]
8E-	.	8e-	8f	.
8E-	.	8e-	8f	4r
8E-J	.	8e-J	8fJ	.
8E-L	4B-	8e-L	8fL	4b-
8C#X	.	8e-	8f	.
8BB-	4F	8e-	8f	4f
8AA-XJ	.	8e-J	8fJ	.
=67	=67	=67	=67	=67
8FFL	4.c	1c	8fL	4.cc
8FF	.	.	8f	.
8FF	.	.	8f	.
8FFJ	[8A	.	8fJ	[8a
8FFL	2A_	.	8fL	2a_
8FF	.	.	8f	.
8FF	.	.	8f	.
8FFJ	.	.	8fJ	.
=68	=68	=68	=68	=68
8FFL	1A_	4.f	1f	1a_
8FF	.	.	.	.
8FF	.	.	.	.
8FFJ	.	8c	.	.
8FFL	.	[2c	.	.
8F	.	.	.	.
8FF	.	.	.	.
8FJ	.	.	.	.
=69	=69	=69	=69	=69
8FFL	1A]	1c]	4.a	1a_
8FF	.	.	.	.
8FF	.	.	.	.
8FFJ	.	.	[8f	.
8FFL	.	.	2f_	.
8FF	.	.	.	.
8FF	.	.	.	.
8FFJ	.	.	.	.
=70	=70	=70	=70	=70
8FFL	4.c	2r	1f]	4a]
8FF	.	.	.	.
8FF	.	.	.	4r
8FFJ	[8A	.	.	.
8FFL	2A_	4f	.	4f
8F	.	.	.	.
8FF	.	4f	.	4f
8FJ	.	.	.	.
=71	=71	=71	=71	=71
8FFL	1A]	4.cc	2r	4.cc
8FF	.	.	.	.
8FF	.	.	.	.
8FFJ	.	[8a	.	[8a
8FFL	.	2a_	4.a	2a_
8FF	.	.	.	.
8FF	.	.	.	.
8FFJ	.	.	[8f	.
=72	=72	=72	=72	=72
8FFL	4.f	2a]	1f_	1a_
8FF	.	.	.	.
8FF	.	.	.	.
8FFJ	[8c	.	.	.
8FFL	2c_	4.cc	.	.
8F	.	.	.	.
8FF	.	.	.	.
8FJ	.	[8a	.	.
=73	=73	=73	=73	=73
8FFL	1c_	1a_	1f_	1a_
8FF	.	.	.	.
8FF	.	.	.	.
8FFJ	.	.	.	.
8FFL	.	.	.	.
8FF	.	.	.	.
8FF	.	.	.	.
8FFJ	.	.	.	.
=74	=74	=74	=74	=74
8FFL	2c]	2a]	2f]	2a]
8FF	.	.	.	.
8FF	.	.	.	.
8FFJ	.	.	.	.
8FFL	2r	2r	2r	2r
8F	.	.	.	.
8FF	.	.	.	.
8FJ	.	.	.	.
=75	=75	=75	=75	=75
*k[b-e-a-]	*k[b-e-a-]	*k[b-e-a-]	*k[b-e-a-]	*k[b-e-a-]
4F	2B-	8r	8r	8r
.	.	8e-L	8g	8cL
4FF	.	8f	8r	8f
.	.	8b-J	8g	8gJ
8FFL	8r	8f	8r	8b-L
8F	8c	4.e-	8g	8gJ
8FF	8r	.	8r	8r
8FJ	8c	.	8g	8g
=76	=76	=76	=76	=76
4r	2B-	8r	8r	8r
.	.	8e-L	8g	8e-L
4FF	.	8f	8r	8f
.	.	8b-J	8g	8gJ
8FFL	8r	8f	8r	8b-L
8F	8c	4.e-	8g	8gJ
8FF	8r	.	8r	8r
8FJ	8c	.	8g	8g
=77	=77	=77	=77	=77
4r	2B-	8r	8r	8r
.	.	8e-L	8g	8e-L
4FF	.	8f	8r	8f
.	.	8b-J	8g	8gJ
8FFL	8r	8f	8r	8b-L
8F	8c	4.e-	8g	8g
8FF	8r	.	8r	8g
8FJ	8c	.	8g	8gJ
=78	=78	=78	=78	=78
4r	2B-	8r	8r	8r
.	.	8e-L	8g	8e-L
4FF	.	8f	8r	8f
.	.	8b-J	8g	8gJ
8FFL	8r	8f	8r	8b-L
8F	8c	4.e-	8g	8g
8FF	8r	.	8r	8b-
8FJ	8c	.	8g	8gJ
=79	=79	=79	=79	=79
4r	2B-	8r	8r	8r
.	.	8e-L	8g	8e-L
4FF	.	8f	8r	8f
.	.	8b-J	8g	8gJ
8FFL	8r	8f	8r	8b-L
8F	8c	4.e-	8g	8gJ
8FF	8r	.	8r	8r
8FJ	8c	.	8g	8g
=80	=80	=80	=80	=80
4r	2B-	8r	8r	8r
.	.	8e-L	8g	8e-L
4FF	.	8f	8r	8f
.	.	8b-J	8g	8gJ
8FFL	8r	8f	8r	8b-L
8F	8c	4.e-	8g	8gJ
8FF	8r	.	8r	8r
8FJ	8c	.	8g	8g
=81	=81	=81	=81	=81
4r	2B-	8r	8r	8r
.	.	8e-L	8g	8e-L
4FF	.	8f	8r	8f
.	.	8b-J	8g	8gJ
8FFL	8r	8f	8r	8b-L
8F	8c	4.e-	8g	8g
8FF	8r	.	8r	8g
8FJ	8c	.	8g	8gJ
=82	=82	=82	=82	=82
4r	2B-	8r	8r	8r
.	.	8e-L	8g	8e-L
4FF	.	8f	8r	8f
.	.	8b-J	8g	8gJ
8FFL	8r	8f	8r	8b-L
8F	8c	4.e-	8g	8gJ
8FF	8r	.	8r	8r
8FJ	8c	.	8g	8g
=83	=83	=83	=83	=83
4r	2B-	8r	8r	8r
.	.	8e-L	8g	8e-L
4FF	.	8f	8r	8f
.	.	8b-J	8g	8gJ
8FFL	8r	8f	8r	8b-L
8F	8c	4.e-	8g	8cc
8FF	8r	.	8r	8b-
8FJ	8c	.	8g	8ccJ
=84	=84	=84	=84	=84
4r	2B-	8r	2r	2r
.	.	8e-L	.	.
4FF	.	8f	.	.
.	.	8b-J	.	.
8FFL	8r	8f	8b-L	8e-L
8F	8c	4.e-	8cc	8f
8FF	8r	.	8cc	8f
8FJ	8c	.	8ccJ	8fJ
=85	=85	=85	=85	=85
4r	2B-	8r	2r	2r
.	.	8e-L	.	.
4FF	.	8f	.	.
.	.	8b-J	.	.
8FFL	8r	8f	8b-L	8e-L
8F	8c	4.e-	8cc	8f
8FF	8r	.	8cc	8f
8FJ	8c	.	8ccJ	8fJ
=86	=86	=86	=86	=86
4r	2B-	8r	2r	2r
.	.	8e-L	.	.
4FF	.	8f	.	.
.	.	8b-J	.	.
8FFL	8r	8f	8b-L	8e-L
8F	8c	4.e-	8cc	8f
8FF	8r	.	8cc	8f
8FJ	8c	.	8ccJ	8fJ
=87	=87	=87	=87	=87
4r	2B-	8r	8r	8r
.	.	8e-L	8ccL	8a-L
4FF	.	8f	8b-	8g
.	.	8b-J	8a-J	8fJ
8FFL	8r	8f	8b-L	8gL
8F	8c	4.e-	8a-	8e-
8FF	8r	.	8g	8c
8FJ	8c	.	8e-J	8cJ
=88	=88	=88	=88	=88
4r	2B-	8r	2r	2r
.	.	8e-L	.	.
4FF	.	8f	.	.
.	.	8b-J	.	.
8FFL	8r	8f	8b-L	8e-L
8F	8c	4.e-	8cc	8f
8FF	8r	.	8cc	8f
8FJ	8c	.	8ccJ	8fJ
=89	=89	=89	=89	=89
4r	2B-	8r	2r	2r
.	.	8e-L	.	.
4FF	.	8f	.	.
.	.	8b-J	.	.
8FFL	8r	8f	8b-L	8e-L
8F	8c	4.e-	8cc	8f
8FF	8r	.	8cc	8f
8FJ	8c	.	8ccJ	8fJ
=90	=90	=90	=90	=90
1r	1r	1r	8r	8r
.	.	.	8a-L	8a-L
.	.	.	8g	8g
.	.	.	8fJ	8fJ
.	.	.	8gL	8gL
.	.	.	8e-	8e-
.	.	.	8c	8c
.	.	.	[8fJ	[8fJ
=91	=91	=91	=91	=91
16E-KL	1r	1r	4f]	4f]
8F	.	.	.	.
16FJk	.	.	.	.
8FL	.	.	4r	4r
16E-L	.	.	.	.
16FJJ	.	.	.	.
16r	.	.	2r	4f
16FKL	.	.	.	.
8FJ	.	.	.	.
8FL	.	.	.	4f
8CJ	.	.	.	.
=92	=92	=92	=92	=92
*k[b-e-a-d-]	*k[b-e-a-d-]	*k[b-e-a-d-]	*k[b-e-a-d-]	*k[b-e-a-d-]
8D-L	8D-	4.d-	4.f	4.ee-
8D-J	4A-	.	.	.
8D-L	.	.	.	.
16AA-L	[8A-	[8e-	[8g	[8cc
16BB-JJ	.	.	.	.
8D-	8A-]	4e-]	4g]	2cc_
4D-	4A-	.	.	.
.	.	[4f	[4a-	.
[8D-	[8A-	.	.	.
=93	=93	=93	=93	=93
8D-]	8A-]	2.f]	2.a-]	4cc]
4D-	4A-	.	.	.
.	.	.	.	4r
[8D-	[8A-	.	.	.
8D-]	8A-]	.	.	4f
4D-	4A-	.	.	.
.	.	8r	8r	4f
8D-	8A-	16e-LL	16gLL	.
.	.	16d-JJ	16fJJ	.
=94	=94	=94	=94	=94
8CL	8C	4.c	4.e-	4.ee-
8CJ	4A-	.	.	.
8CL	.	.	.	.
16AA-L	[8A-	[8e-	[8g	[8cc
16BB-JJ	.	.	.	.
8C	8A-]	4e-]	4g]	2cc_
4C	4A-	.	.	.
.	.	[4e-	[4a-	.
[8C	[8A-	.	.	.
=95	=95	=95	=95	=95
8C]	8A-]	2.e-]	2a-]	4cc]
4C	4A-	.	.	.
.	.	.	.	4r
[8C	[8A-	.	.	.
8C]	8A-]	.	8r	8r
4C	4A-	.	8a-L	8fL
.	.	4r	8cc	8a-
8C	8A-	.	8a-J	8fJ
=96	=96	=96	=96	=96
8BB-L	8r	4.d-	8ccL	8a-L
8BB-	8A-L	.	8a-	8f
8BB-	8c	.	8cc	8a-
8BB-J	8A-J	[8e-	8a-J	8fJ
8BB-L	8d-L	4e-]	8ccL	8a-L
8BB-	8A-	.	8dd-	8b-
8BB-	8c	4e-	8ee-	8cc
8BB-J	8A-J	.	[8dd-J	[8b-J
=97	=97	=97	=97	=97
8BB-L	8B-L	4d-	8dd-L]	8b-L]
8BB-	8A-	.	8ee-J	8ccJ
8BB-	8c	4e-	4r	4r
8BB-J	8A-J	.	.	.
8BB-L	8d-L	4f	8r	8r
8BB-	8A-	.	4.ee-	8ccL
8BB-	8c	4g	.	8dd-
8BB-J	8A-J	.	.	8ccJ
=98	=98	=98	=98	=98
8FFL	4.B-	4.f	1cc	8b-L
8FF	.	.	.	8a-
8FF	.	.	.	8a-
8FFJ	[8c	[8f	.	8fJ
8FFL	4c]	4f]	.	8a-L
8FF	.	.	.	8b-
8FF	4e-	4f	.	8cc
8FFJ	.	.	.	[8b-J
=99	=99	=99	=99	=99
8FFL	8r	8r	8r	8b-L]
8FF	4.d-	4.f	4.a-	8a-J
8FF	.	.	.	4r
8FFJ	.	.	.	.
8FFL	4c	4f	4a-	4f
8GG	.	.	.	.
8AA-	4c	4f	4a-	4f
8CJ	.	.	.	.
=100	=100	=100	=100	=100
8D-L	4.f	4.a-	4.b-	4.ee-
8D-J	.	.	.	.
8D-L	.	.	.	.
16AA-L	[8d-	[8f	[8a-	[8cc
16BB-JJ	.	.	.	.
8D-	2d-_	2f_	2a-_	2cc_
4D-	.	.	.	.
[8D-	.	.	.	.
=101	=101	=101	=101	=101
8D-]	4d-]	4f]	4a-]	4cc]
4D-	.	.	.	.
.	4r	4r	4r	4r
[8D-	.	.	.	.
8D-]	4d-	4f	4a-	4f
4D-	.	.	.	.
.	4d-	4f	4a-	4f
8D-	.	.	.	.
=102	=102	=102	=102	=102
8CL	4.c	2r	4r	4.ee-
8CJ	.	.	.	.
8CL	.	.	4.b-	.
16AA-L	[8A-	.	.	[8cc
16BB-JJ	.	.	.	.
8C	4A-]	4.a-	.	2cc_
4C	.	.	[8a-	.
.	[4c	.	4a-_	.
[8C	.	[8e-	.	.
=103	=103	=103	=103	=103
8C]	8cL]	1e-]	1a-]	4cc]
4C	[8A-J	.	.	.
.	2.A-]	.	.	4r
[8C	.	.	.	.
8C]	.	.	.	4f
4C	.	.	.	.
.	.	.	.	4f
8C	.	.	.	.
=104	=104	=104	=104	=104
8BB-L	4.f	4.a-	4.b-	4.ee-
8BB-J	.	.	.	.
8BB-L	.	.	.	.
16FFL	[8d-	[8f	[8a-	[8cc
16AA-JJ	.	.	.	.
8BB-	2d-_	2f_	2a-_	2cc_
4BB-	.	.	.	.
[8BB-	.	.	.	.
=105	=105	=105	=105	=105
8BB-]	4d-]	4f]	4a-]	4cc]
4E-	.	.	.	.
.	4r	4r	4r	4r
[8E-	.	.	.	.
8E-]	4d-	4f	4a-	4a-
4E-	.	.	.	.
.	4d-	4f	4a-	4a-
8E-	.	.	.	.
=106	=106	=106	=106	=106
8AA-L	4.c	4.a-	4.b-	4.ee-
8AA-J	.	.	.	.
4r	.	.	.	.
.	[8c	[8e-	[8a-	[8cc
8AA-L	2c]	2e-]	2a-]	2cc_
8AA-J	.	.	.	.
4r	.	.	.	.
=107	=107	=107	=107	=107
2AA-	2A-	2c	2e-	2cc]
2r	2r	2r	2r	4f
.	.	.	.	4f
=108	=108	=108	=108	=108
8D-L	8D-	4.d-	4.f	4.ee-
8D-J	4A-	.	.	.
8D-L	.	.	.	.
16AA-L	[8A-	[8e-	[8g	[8cc
16BB-JJ	.	.	.	.
8D-	8A-]	4e-]	4g]	2cc_
4D-	4A-	.	.	.
.	.	[4f	[4a-	.
[8D-	[8A-	.	.	.
=109	=109	=109	=109	=109
8D-]	8A-]	2.f]	2.a-]	4cc]
4D-	4A-	.	.	.
.	.	.	.	4r
[8D-	[8A-	.	.	.
8D-]	8A-]	.	.	4a-
4D-	4A-	.	.	.
.	.	8r	8r	4a-
8D-	8A-	16e-LL	16gLL	.
.	.	16d-JJ	16fJJ	.
=110	=110	=110	=110	=110
8CL	8C	4.c	4.e-	4.ee-
8CJ	4A-	.	.	.
8CL	.	.	.	.
16AA-L	[8A-	[8e-	[8g	[8cc
16BB-JJ	.	.	.	.
8C	8A-]	4e-]	4g]	2cc_
4C	4A-	.	.	.
.	.	[4e-	[4a-	.
[8C	[8A-	.	.	.
=111	=111	=111	=111	=111
8C]	8A-]	2e-]	2a-]	4cc]
4C	4A-	.	.	.
.	.	.	.	4r
[8C	[8A-	.	.	.
8C]	8A-]	2r	8r	8r
4C	4A-	.	8a-L	8fL
.	.	.	8cc	8a-
8C	8A-	.	8a-J	8fJ
=112	=112	=112	=112	=112
8BB-L	8r	4.d-	8ccL	8a-L
8BB-	8A-L	.	8a-	8f
8BB-	8c	.	8cc	8a-
8BB-J	8A-J	[8d-	8a-J	8fJ
8BB-L	8d-L	4d-]	8ccL	8a-L
8BB-	8A-	.	8dd-	8b-
8BB-	8c	4e-	8ee-	8cc
8BB-J	8A-J	.	[8dd-J	[8b-J
=113	=113	=113	=113	=113
8BB-L	8B-L	4d-	8dd-L]	8b-L]
8BB-	8A-	.	8ee-J	8ccJ
8BB-	8c	4e-	4r	4r
8BB-J	8A-J	.	.	.
8BB-L	8d-L	4f	8r	8r
8BB-	8A-	.	4.ee-	8ccL
8BB-	8c	4g	.	8dd-
8BB-J	8A-J	.	.	8ccJ
=114	=114	=114	=114	=114
8FFL	4.B-	4.f	1cc	8b-L
8FF	.	.	.	8a-
8FF	.	.	.	8a-
8FFJ	[8c	[8f	.	8fJ
8FFL	4c]	4f]	.	8a-L
8FF	.	.	.	8b-
8FF	4e-	4f	.	8cc
8FFJ	.	.	.	[8b-J
=115	=115	=115	=115	=115
8FFL	8r	8r	8r	8b-L]
8FF	4.d-	4.f	4.a-	8a-J
8FF	.	.	.	4r
8FFJ	.	.	.	.
8FFL	4c	4f	4a-	4f
8GG	.	.	.	.
8AA-	4c	4f	4a-	4f
8CJ	.	.	.	.
=116	=116	=116	=116	=116
8D-L	4.f	4.a-	4.b-	4.ee-
8D-J	.	.	.	.
8D-L	.	.	.	.
16AA-L	[8d-	[8f	[8a-	[8cc
16BB-JJ	.	.	.	.
8D-	2d-_	2f_	2a-_	2cc_
4D-	.	.	.	.
[8D-	.	.	.	.
=117	=117	=117	=117	=117
8D-]	4d-]	4f]	4a-]	4cc]
4D-	.	.	.	.
.	4r	4r	4r	4r
[8D-	.	.	.	.
8D-]	4d-	4f	4a-	4a-
4D-	.	.	.	.
.	4d-	4f	4a-	4a-
8D-	.	.	.	.
=118	=118	=118	=118	=118
8CL	4.c	2r	4r	4.ee-
8CJ	.	.	.	.
8CL	.	.	4.b-	.
16AA-L	[8A-	.	.	[8cc
16BB-JJ	.	.	.	.
8C	4A-]	4.a-	.	2cc_
4C	.	.	[8a-	.
.	[4c	.	4a-_	.
[8C	.	[8e-	.	.
=119	=119	=119	=119	=119
8C]	8cL]	1e-]	1a-]	4cc]
4C	[8A-J	.	.	.
.	2.A-]	.	.	4r
[8C	.	.	.	.
8C]	.	.	.	4f
4C	.	.	.	.
.	.	.	.	4f
8C	.	.	.	.
=120	=120	=120	=120	=120
8BB-L	4.f	4.a-	4.b-	4.ee-
8BB-J	.	.	.	.
8BB-L	.	.	.	.
16FFL	[8d-	[8f	[8a-	[8cc
16AA-JJ	.	.	.	.
8BB-	2d-_	2f_	2a-_	2cc_
4BB-	.	.	.	.
8BB-	.	.	.	.
=121	=121	=121	=121	=121
8BB-	4d-]	4f]	4a-]	4cc]
4E-	.	.	.	.
.	4r	4r	4r	4r
[8E-	.	.	.	.
8E-]	4d-	4f	4a-	4a-
4E-	.	.	.	.
.	4d-	4f	4a-	4a-
8E-	.	.	.	.
=122	=122	=122	=122	=122
8AA-L	4.c	4.a-	4.b-	4.ee-
8AA-J	.	.	.	.
4r	.	.	.	.
.	[8c	[8e-	[8a-	[8cc
8AA-L	2c_	2e-_	2a-_	2cc_
8AA-J	.	.	.	.
4r	.	.	.	.
=123	=123	=123	=123	=123
8AA-L	2c]	2e-]	2a-]	2cc]
8AA-	.	.	.	.
8AA-	.	.	.	.
8AA-J	.	.	.	.
8AA-L	2r	2r	2r	2r
8AA-	.	.	.	.
8AA-	.	.	.	.
8AA-J	.	.	.	.
=124	=124	=124	=124	=124
8D-L	8.A-L	4.d-	4.f	1r
8D-J	.	.	.	.
.	16A-Jk	.	.	.
8D-L	8r	.	.	.
16AA-L	8A-	[8e-	[8g	.
16BB-JJ	.	.	.	.
8D-	8r	4e-]	4g]	.
4D-	8A-	.	.	.
.	16r	[4f	[4a-	.
.	8.A-	.	.	.
[8D-	.	.	.	.
=125	=125	=125	=125	=125
8D-]	8.A-L	2.f]	2.a-]	4r
4D-	.	.	.	.
.	16A-Jk	.	.	.
.	8r	.	.	2.f
[8D-	8A-	.	.	.
8D-]	8r	.	.	.
4D-	8A-	.	.	.
.	16r	8r	8r	.
.	8.A-	.	.	.
8D-	.	16e-LL	16gLL	.
.	.	16d-JJ	16fJJ	.
=126	=126	=126	=126	=126
8CL	8.A-L	4.c	4.e-	4e-
8CJ	.	.	.	.
.	16A-Jk	.	.	.
8CL	8r	.	.	4a-
16AA-L	8A-	[8e-	[8g	.
16BB-JJ	.	.	.	.
8C	8r	4e-]	4g]	4a-
4C	8A-	.	.	.
.	16r	[4e-	[4a-	4r
.	8.A-	.	.	.
[8C	.	.	.	.
=127	=127	=127	=127	=127
8C]	8.A-L	2.e-]	2.a-]	4a-
4C	.	.	.	.
.	16A-Jk	.	.	.
.	8r	.	.	4a-
[8C	8A-	.	.	.
8C]	8r	.	.	2r
4C	8A-	.	.	.
.	16r	4r	4r	.
.	8.A-	.	.	.
8C	.	.	.	.
=128	=128	=128	=128	=128
8BB-L	8.A-L	4.d-	4.f	4.a-
8BB-J	.	.	.	.
.	16A-Jk	.	.	.
8BB-L	8r	.	.	.
16FFL	8A-	[8e-	[8g	[8b-
16AA-JJ	.	.	.	.
8BB-	8r	4e-]	4g]	4b-]
4BB-	8A-	.	.	.
.	16r	[4f	[4a-	[4cc
.	8.A-	.	.	.
[8BB-	.	.	.	.
=129	=129	=129	=129	=129
8BB-]	8.A-L	2.f]	2.a-]	2.cc]
4BB-	.	.	.	.
.	16A-Jk	.	.	.
.	8r	.	.	.
[8BB-	8A-	.	.	.
8BB-]	8r	.	.	.
4BB-	8A-	.	.	.
.	16r	4r	4r	4r
.	8.A-	.	.	.
8BB-	.	.	.	.
=130	=130	=130	=130	=130
4AA-	4c	4e-	4a-	4a-
4r	4r	4r	4r	4r
4AA-	4c	4e-	4a-	4a-
4r	4r	4r	4r	4r
=131	=131	=131	=131	=131
4AA-	4c	4e-	4a-	4a-
4AA-	4c	4e-	4a-	4a-
4r	4r	4r	4r	4r
4AA-	4c	4e-	4a-	4a-
==	==	==	==	==
*-	*-	*-	*-	*-
